X: 3
I: linebreak $
T: Belfiore
P: Play three times through
N: Drone: G/D
K: G major
M: 4/4
L: 1/8
P: A (3x)
"^Quadernaria"G3A B2c2 | B2dc B2AG | G3A B2c2 | B2cB A2G2 "^(3)":: 
P: B (3x)
d2d3/e/ d3/c/"^       (3)"B2 :: 
M: 2/4
P: C (3x)
d2 "^       (3)"B2 :: 
M: 4/4
P: D (3x)
d2d3/e/ d3/c/"^       (3)"B2 :: 
M: 6/8
P: E (3x)
G2"^Piva"A Bcz | G2A Bcz/d/ | c2B AGz "^(3)":| 
P: F
d3 B2c | d6 | G2A Bcz | 
G2A Bcz/d/ | c3/B/A cBA | G6 |] 

